svgs/sharp-solid/church.svg

<svg xmlns="http://www.w3.org/2000/svg" viewBox="0 0 640 512"><!--! Font Awesome Pro 6.4.0 by @fontawesome - https://fontawesome.com License - https://fontawesome.com/license (Commercial License) Copyright 2023 Fonticons, Inc. --><path d="M344 24V0H296V24 48H264 240V96h24 32v46.4L160 224V512h96V416c0-35.3 28.7-64 64-64s64 28.7 64 64v96h96V224L344 142.4V96h32 24V48H376 344V24zM0 344V512H128V273.6L0 344zM640 512V344L512 273.6V512H640z"/></svg>

<svg xmlns="http://www.w3.org/2000/svg" viewBox="0 0 640 512"><!--! Font Awesome Pro 6.6.0 by @fontawesome - https://fontawesome.com License - https://fontawesome.com/license (Commercial License) Copyright 2024 Fonticons, Inc. --><path d="M344 24l0-24L296 0l0 24 0 24-32 0-24 0 0 48 24 0 32 0 0 46.4L160 224l0 288 96 0 0-96c0-35.3 28.7-64 64-64s64 28.7 64 64l0 96 96 0 0-288L344 142.4 344 96l32 0 24 0 0-48-24 0-32 0 0-24zM0 344L0 512l128 0 0-238.4L0 344zM640 512l0-168L512 273.6 512 512l128 0z"/></svg>
